img/icons/gplus.svg

<svg xmlns="http://www.w3.org/2000/svg" width="24" height="15.5" viewBox="0 0 45 29"><title>Shape</title><path d="M45 12.5h-4.1V8.4h-4.1v4.1h-4.1v4h4.1v4.1h4.1v-4.1H45v-4zm-30.7 0v4.9h8.1c-.3 2.1-2.4 6.1-8.1 6.1-4.8 0-8.8-4-8.8-9s4-9 8.8-9c2.8 0 4.7 1.2 5.7 2.2l3.9-3.8C21.4 1.6 18.2.2 14.3.2 6.4.2 0 6.6 0 14.5s6.4 14.3 14.3 14.3c8.3 0 13.8-5.8 13.8-14 0-.9-.1-1.6-.3-2.3H14.3z" class="ampstart-icon ampstart-icon-gplus"/></svg>

<svg xmlns="http://www.w3.org/2000/svg" width="24" height="15.5" viewBox="0 0 45 29">
  <title>
    Shape
  </title>
  <desc>
    Created with Sketch.
  </desc>
  <g fill="none">
    <g fill="#000" class="ampstart-icon ampstart-icon-gplus">
        <path d="M45 12.5L40.9 12.5 40.9 8.4 36.8 8.4 36.8 12.5 32.7 12.5 32.7 16.5 36.8 16.5 36.8 20.6 40.9 20.6 40.9 16.5 45 16.5 45 12.5ZM14.3 12.5L14.3 17.4 22.4 17.4C22.1 19.5 20 23.5 14.3 23.5 9.5 23.5 5.5 19.5 5.5 14.5 5.5 9.5 9.5 5.5 14.3 5.5 17.1 5.5 19 6.7 20 7.7L23.9 3.9C21.4 1.6 18.2 0.2 14.3 0.2 6.4 0.2 0 6.6 0 14.5 0 22.4 6.4 28.8 14.3 28.8 22.6 28.8 28.1 23 28.1 14.8 28.1 13.9 28 13.2 27.8 12.5L14.3 12.5Z"/>
    </g>
  </g>
</svg>
